source/svgs/bowtie/uEA77-file-type-vb.svg

<svg xmlns="http://www.w3.org/2000/svg" viewBox="0 0 448 448" enable-background="new 0 0 448 448"><path d="M148.531 291.156l-54.031 156.844h-40.031l-53.375-156.844h38.063l32.703 109.156c1.75 5.906 2.813 11.125 3.172 15.625h.656c.516-4.875 1.641-10.219 3.391-16.063l32.484-108.719h36.968zm18.813 156.844v-156.844h57.094c17.5 0 30.953 3.219 40.375 9.625 9.375 6.406 14.094 15.469 14.094 27.125 0 8.469-2.844 15.844-8.594 22.219-5.719 6.313-13.031 10.75-21.922 13.219v.438c11.172 1.375 20.078 5.5 26.734 12.344 6.688 6.875 10 15.219 10 25.063 0 14.375-5.125 25.75-15.406 34.188-10.281 8.404-24.313 12.623-42.11 12.623h-60.265zm35.328-130.812v37.188h15.531c7.297 0 13.031-1.781 17.234-5.313 4.188-3.531 6.281-8.406 6.281-14.594 0-11.531-8.609-17.281-25.813-17.281h-13.233zm0 63.437v41.344h19.141c8.172 0 14.563-1.906 19.188-5.688 4.641-3.781 6.953-8.969 6.953-15.531 0-6.281-2.281-11.188-6.828-14.75-4.563-3.594-10.922-5.375-19.094-5.375h-19.36zm91.952-380.625h-230.624v256h32v-224h160v128h128v256h-64v32h96v-326.624l-121.376-121.376zm-6.624 128v-89.376l89.376 89.376h-89.376z"/></svg>

<svg xmlns="http://www.w3.org/2000/svg" viewBox="0 0 448 448"><path d="M148.531 291.156L94.5 448H54.469L1.094 291.156h38.063L71.86 400.312c1.75 5.906 2.813 11.125 3.172 15.625h.656c.516-4.875 1.641-10.219 3.391-16.063l32.484-108.719h36.968zM167.344 448V291.156h57.094c17.5 0 30.953 3.219 40.375 9.625 9.375 6.406 14.094 15.469 14.094 27.125 0 8.469-2.844 15.844-8.594 22.219-5.719 6.313-13.031 10.75-21.922 13.219v.438c11.172 1.375 20.078 5.5 26.734 12.344 6.688 6.875 10 15.219 10 25.063 0 14.375-5.125 25.75-15.406 34.188-10.281 8.404-24.313 12.623-42.11 12.623h-60.265zm35.328-130.812v37.188h15.531c7.297 0 13.031-1.781 17.234-5.313 4.188-3.531 6.281-8.406 6.281-14.594 0-11.531-8.609-17.281-25.813-17.281h-13.233zm0 63.437v41.344h19.141c8.172 0 14.563-1.906 19.188-5.688 4.641-3.781 6.953-8.969 6.953-15.531 0-6.281-2.281-11.188-6.828-14.75-4.563-3.594-10.922-5.375-19.094-5.375h-19.36zM294.624 0H64v256h32V32h160v128h128v256h-64v32h96V121.376L294.624 0zM288 128V38.624L377.376 128H288z"/></svg>
